X:11844
T:no name
M:C|
L:1/8
S:Paddy O'Neill
R:reel
Z:id:hn-reel-744
K:G
DG~G2 FGAc|BGAG ~F3E|DG~G2 FGAc|1 BGAF G2AF:|2 BGAF GABc||
|:d2d2 ^c2c2|ded=c BABc|d2ed cA~A2|1 BGAF GABc:|2 BzAF ~G3E||
